icons/dropdown.svg

<?xml version="1.0" encoding="UTF-8" standalone="no"?>
<svg width="24px" height="24px" viewBox="0 0 24 24" version="1.1" xmlns="http://www.w3.org/2000/svg" xmlns:xlink="http://www.w3.org/1999/xlink" xmlns:sketch="http://www.bohemiancoding.com/sketch/ns">
    <!-- Generator: Sketch 3.4.1 (15681) - http://www.bohemiancoding.com/sketch -->
    <title>dropdown</title>
    <desc>Created with Sketch.</desc>
    <defs></defs>
    <g id="Page-1" stroke="none" stroke-width="1" fill="none" fill-rule="evenodd" sketch:type="MSPage">
        <g id="dropdown" sketch:type="MSArtboardGroup">
            <path d="M21.9950534,8 L21.9950534,8 L2.00494659,8 C1.44872894,8 1,8.44713342 1,8.9973917 L1,14.0026083 C1,14.5516854 1.44976221,15 2.00494659,15 L21.9950534,15 C22.5512711,15 23,14.5528666 23,14.0026083 L23,8.9973917 C23,8.44831461 22.5502378,8 21.9950534,8 L21.9950534,8 Z M21.9950534,7 C23.1023548,7 24,7.89585781 24,8.9973917 L24,14.0026083 C24,15.1057373 23.1029738,16 21.9950534,16 L2.00494659,16 C0.897645164,16 0,15.1041422 0,14.0026083 L0,8.9973917 C0,7.89426273 0.897026226,7 2.00494659,7 L21.9950534,7 L21.9950534,7 Z" id="Shape" fill="#474747" sketch:type="MSShapeGroup"></path>
            <path d="M14.6464466,10.3535534 L17.6464466,13.3535534 C17.8417088,13.5488155 18.1582912,13.5488155 18.3535534,13.3535534 L21.3535534,10.3535534 C21.5488155,10.1582912 21.5488155,9.84170876 21.3535534,9.64644661 C21.1582912,9.45118446 20.8417088,9.45118446 20.6464466,9.64644661 L17.6464466,12.6464466 L18.3535534,12.6464466 L15.3535534,9.64644661 C15.1582912,9.45118446 14.8417088,9.45118446 14.6464466,9.64644661 C14.4511845,9.84170876 14.4511845,10.1582912 14.6464466,10.3535534 L14.6464466,10.3535534 Z" id="Shape" fill="#000000" sketch:type="MSShapeGroup"></path>
        </g>
    </g>
</svg>

<svg width="24" height="24" viewBox="0 0 24 24" xmlns="http://www.w3.org/2000/svg"><title>dropdown</title><g fill="none" fill-rule="evenodd"><path d="M21.995 8H2.005A1 1 0 0 0 1 8.997v5.006A1 1 0 0 0 2.005 15h19.99A1 1 0 0 0 23 14.003V8.997A1 1 0 0 0 21.995 8zm0-1C23.102 7 24 7.896 24 8.997v5.006A2 2 0 0 1 21.995 16H2.005A2.002 2.002 0 0 1 0 14.003V8.997A2 2 0 0 1 2.005 7h19.99z" fill="#474747"/><path d="M14.646 10.354l3 3a.5.5 0 0 0 .708 0l3-3a.5.5 0 0 0-.708-.708l-3 3h.708l-3-3a.5.5 0 0 0-.708.708z" fill="#000"/></g></svg>
